X:4213
T:Doctor Feg - Waltz/Walzer/Valse
C:Nigel Eaton
Z:abc transcription Simon Wascher
N:please mail errors to simon.wascher@chello.at
M:3/4
L:1/4
K:Dm
dd/c/d/e/|fe/d/e/f/|dd/c/d/e/|f/e/d/f/e/d/|
BB/A/B/c/|d>Bc/d/|_e/d/c/_e/d/c/|d>fe/f/|
dd/c/d/e/|fe/d/e/f/|dd/c/d/e/|f/e/d/f/e/d/|
BB/A/B/c/|d>Bc/d/|_e/d/c/_e/d/c/|1d>fe/f/:|2d3||
|:c>Ac|^c>A^c|d>^cd/c/|c/f/a/f/c/A/|
G/F/G/A/B/A/|Gc>B|A/B/c/d/e/f/|e2d|
^c>A^c|d>Ad|e>de|fe/f/e/d/|
gf/g/f/e/|d>ef/e/|1dc2|d3:|2d3|d/c/B/A/B/c/|]
